X:1
T: Miss Smyth of Methven
C:
R:Reel
Q: 232
K:A
M:4/4
L:1/8
c|A2 EC EC A,C|B,B Bc BA FB|A2 EC EF1/2G1/2 AF|EC DB, A,2 A,c|
A2 EC EC A,C|B,B Bc BA FB|A2 EC EF1/2G1/2 AF|EC DB, A,2 A,d|
c2 ec Ac df|ec Ac BA Fd|c2 ec Ac df|ec Bc A2 Ad|
c2 ec Ac df|ec Ac BA FB|A2 EC EF1/2G1/2 AF|EC DB, A,2 A,D|
C2 EC A,A, EA,|B,B Bc BA FB|A2 EC EF1/2G1/2 AF|EC DB, A,2 A,D|
C2 EC A,A, EA,|B,B Bc BA FB|A2 EC A1/2B1/2c1/2d1/2 ec|dB ec A2 Ad|
e2 e2 ce af|ec Ac BA Fd|e2 e2 ce af|ec dB A2 Ad|
e2 e2 ce af|ec Ac BA FB|A2 EC EF1/2G1/2|AF EC DB, A,2 A,||
